cssgg/edit-highlight.svg

<svg
  width="24"
  height="24"
  viewBox="0 0 24 24"
  fill="none"
  xmlns="http://www.w3.org/2000/svg"
>
  <path
    d="M12 6C10.7785 6 9.64223 6.36502 8.69435 6.99194H12V7.99194H7.53501C7.00911 8.57742 6.59669 9.26689 6.33237 10.0258H12V11.0258H6.07869C6.02692 11.3428 6 11.6683 6 12C6 12.3379 6.02793 12.6693 6.08161 12.9919H12V13.9919H6.33857C6.60189 14.7404 7.00941 15.4208 7.52779 16H12V17H8.68221C9.63251 17.6318 10.7733 18 12 18C15.3137 18 18 15.3137 18 12C18 8.68629 15.3137 6 12 6Z"
    fill="currentColor"
  />
  <path
    fill-rule="evenodd"
    clip-rule="evenodd"
    d="M2 12C2 6.47715 6.47715 2 12 2C17.5228 2 22 6.47715 22 12C22 17.5228 17.5228 22 12 22C6.47715 22 2 17.5228 2 12ZM12 20C7.58172 20 4 16.4183 4 12C4 7.58172 7.58172 4 12 4C16.4183 4 20 7.58172 20 12C20 16.4183 16.4183 20 12 20Z"
    fill="currentColor"
  />
</svg>

<svg viewBox="0 0 24 24" xmlns="http://www.w3.org/2000/svg"><g><path d="M12 6c-1.23 0-2.36.36-3.31.99h3.3v1H7.52c-.53.58-.94 1.27-1.21 2.03h5.66v1H6.04c-.06.31-.08.64-.08.97 0 .33.02.66.08.99h5.91v1H6.28c.26.74.67 1.42 1.18 2h4.47v1H8.61c.95.63 2.09 1 3.31 1 3.31 0 6-2.69 6-6 0-3.32-2.69-6-6-6Z"/><path fill-rule="evenodd" d="M2 12C2 6.47 6.47 2 12 2c5.52 0 10 4.47 10 10 0 5.52-4.48 10-10 10C6.47 22 2 17.52 2 12Zm10 8c-4.42 0-8-3.59-8-8 0-4.42 3.58-8 8-8 4.41 0 8 3.58 8 8 0 4.41-3.59 8-8 8Z"/></g></svg>
